X: 252
T:Never Was Piping So Gay
Z: id:dc-reel-361
M:C
L:1/8
K:G Major
D| "G"G,2B,D GBdB| "D7"cafd cAFA| "G"G2BG DGBG| "D7"AFF2 dFAF|
"G"G2BG DGBA| Ggfe "A7"^cdef| gfgd "G"BdBG| "D"FGAd "G"BGG:|
